app/assets/images/icons/active/home.svg

<?xml version="1.0" encoding="UTF-8" standalone="no"?>
<svg width="32px" height="232px" viewBox="0 0 32 232" version="1.1" xmlns="http://www.w3.org/2000/svg" xmlns:xlink="http://www.w3.org/1999/xlink" xmlns:sketch="http://www.bohemiancoding.com/sketch/ns">
    <title>home</title>
    <description>Created with Sketch (http://www.bohemiancoding.com/sketch)</description>
    <defs></defs>
    <g id="Categories" stroke="none" stroke-width="1" fill="none" fill-rule="evenodd" sketch:type="MSPage">
        <path d="M29.3612316,176.588 C29.1302612,176.889 28.6965612,176.949 28.3919627,176.723 L15.9992392,167.451 L3.60651564,176.723 C3.30393429,176.949 2.87023435,176.889 2.64027252,176.588 C2.40930209,176.288 2.47082697,175.858 2.77139111,175.63 L15.2387514,166.305 C15.466696,166.134 15.752131,165.99 15.9720068,165.99 C16.1969256,165.994 16.5327909,166.134 16.7607356,166.305 L21.8673001,170.125 L21.8673001,169.493 C21.8673001,168.997 22.2455268,168.594 22.7094849,168.594 L24.6177646,168.594 C25.0817227,168.594 25.4589408,168.997 25.4589408,169.493 L25.4589408,172.811 L29.2270872,175.63 C29.5306771,175.858 29.5891762,176.288 29.3612316,176.588 C29.3612316,176.588 29.5891762,176.288 29.3612316,176.588 L29.3612316,176.588 L29.3612316,176.588 Z M23.7332185,188 L18.7365918,188 L18.7365918,181.157 C18.7365918,180.399 18.1163,179.783 17.3527864,179.783 L14.5972789,179.783 C13.8337653,179.783 13.2124649,180.399 13.2124649,181.157 L13.2124649,188 L8.26626844,188 C7.19815627,188 6.33277361,187.143 6.33277361,185.981 L6.33277361,177.15 L15.1106586,170.548 C15.1106586,170.548 15.6593394,170.094 15.9992392,170.094 C16.3280442,170.094 16.8847939,170.548 16.8847939,170.548 L25.6677219,177.15 L25.6677219,186.084 C25.6677219,187.143 24.8013306,188 23.7332185,188 L23.7332185,188 Z M23.7332185,188" id="home--green" fill="#15C98D" sketch:type="MSShapeGroup"></path>
        <path d="M29.3612316,136.588 C29.1302612,136.889 28.6965612,136.949 28.3919627,136.723 L15.9992392,127.451 L3.60651564,136.723 C3.30393429,136.949 2.87023435,136.889 2.64027252,136.588 C2.40930209,136.288 2.47082697,135.858 2.77139111,135.63 L15.2387514,126.305 C15.466696,126.134 15.752131,125.99 15.9720068,125.99 C16.1969256,125.994 16.5327909,126.134 16.7607356,126.305 L21.8673001,130.125 L21.8673001,129.493 C21.8673001,128.997 22.2455268,128.594 22.7094849,128.594 L24.6177646,128.594 C25.0817227,128.594 25.4589408,128.997 25.4589408,129.493 L25.4589408,132.811 L29.2270872,135.63 C29.5306771,135.858 29.5891762,136.288 29.3612316,136.588 C29.3612316,136.588 29.5891762,136.288 29.3612316,136.588 L29.3612316,136.588 L29.3612316,136.588 Z M23.7332185,148 L18.7365918,148 L18.7365918,141.157 C18.7365918,140.399 18.1163,139.783 17.3527864,139.783 L14.5972789,139.783 C13.8337653,139.783 13.2124649,140.399 13.2124649,141.157 L13.2124649,148 L8.26626844,148 C7.19815627,148 6.33277361,147.143 6.33277361,145.981 L6.33277361,137.15 L15.1106586,130.548 C15.1106586,130.548 15.6593394,130.094 15.9992392,130.094 C16.3280442,130.094 16.8847939,130.548 16.8847939,130.548 L25.6677219,137.15 L25.6677219,146.084 C25.6677219,147.143 24.8013306,148 23.7332185,148 L23.7332185,148 Z M23.7332185,148" id="home--lp-blue" fill="#206FAC" sketch:type="MSShapeGroup"></path>
        <path d="M29.3612316,96.588 C29.1302612,96.889 28.6965612,96.949 28.3919627,96.723 L15.9992392,87.451 L3.60651564,96.723 C3.30393429,96.949 2.87023435,96.889 2.64027252,96.588 C2.40930209,96.288 2.47082697,95.858 2.77139111,95.63 L15.2387514,86.305 C15.466696,86.134 15.752131,85.99 15.9720068,85.99 C16.1969256,85.994 16.5327909,86.134 16.7607356,86.305 L21.8673001,90.125 L21.8673001,89.493 C21.8673001,88.997 22.2455268,88.594 22.7094849,88.594 L24.6177646,88.594 C25.0817227,88.594 25.4589408,88.997 25.4589408,89.493 L25.4589408,92.811 L29.2270872,95.63 C29.5306771,95.858 29.5891762,96.288 29.3612316,96.588 C29.3612316,96.588 29.5891762,96.288 29.3612316,96.588 L29.3612316,96.588 L29.3612316,96.588 Z M23.7332185,108 L18.7365918,108 L18.7365918,101.157 C18.7365918,100.399 18.1163,99.783 17.3527864,99.783 L14.5972789,99.783 C13.8337653,99.783 13.2124649,100.399 13.2124649,101.157 L13.2124649,108 L8.26626844,108 C7.19815627,108 6.33277361,107.143 6.33277361,105.981 L6.33277361,97.15 L15.1106586,90.548 C15.1106586,90.548 15.6593394,90.094 15.9992392,90.094 C16.3280442,90.094 16.8847939,90.548 16.8847939,90.548 L25.6677219,97.15 L25.6677219,106.084 C25.6677219,107.143 24.8013306,108 23.7332185,108 L23.7332185,108 Z M23.7332185,108" id="home--white" fill="#FFFFFF" sketch:type="MSShapeGroup"></path>
        <path d="M29.3612316,56.588 C29.1302612,56.889 28.6965612,56.949 28.3919627,56.723 L15.9992392,47.451 L3.60651564,56.723 C3.30393429,56.949 2.87023435,56.889 2.64027252,56.588 C2.40930209,56.288 2.47082697,55.858 2.77139111,55.63 L15.2387514,46.305 C15.466696,46.134 15.752131,45.99 15.9720068,45.99 C16.1969256,45.994 16.5327909,46.134 16.7607356,46.305 L21.8673001,50.125 L21.8673001,49.493 C21.8673001,48.997 22.2455268,48.594 22.7094849,48.594 L24.6177646,48.594 C25.0817227,48.594 25.4589408,48.997 25.4589408,49.493 L25.4589408,52.811 L29.2270872,55.63 C29.5306771,55.858 29.5891762,56.288 29.3612316,56.588 C29.3612316,56.588 29.5891762,56.288 29.3612316,56.588 L29.3612316,56.588 L29.3612316,56.588 Z M23.7332185,68 L18.7365918,68 L18.7365918,61.157 C18.7365918,60.399 18.1163,59.783 17.3527864,59.783 L14.5972789,59.783 C13.8337653,59.783 13.2124649,60.399 13.2124649,61.157 L13.2124649,68 L8.26626844,68 C7.19815627,68 6.33277361,67.143 6.33277361,65.981 L6.33277361,57.15 L15.1106586,50.548 C15.1106586,50.548 15.6593394,50.094 15.9992392,50.094 C16.3280442,50.094 16.8847939,50.548 16.8847939,50.548 L25.6677219,57.15 L25.6677219,66.084 C25.6677219,67.143 24.8013306,68 23.7332185,68 L23.7332185,68 Z M23.7332185,68" id="home--body-grey" fill="#67737B" sketch:type="MSShapeGroup"></path>
        <path d="M29.3612316,16.588 C29.1302612,16.889 28.6965612,16.949 28.3919627,16.723 L15.9992392,7.451 L3.60651564,16.723 C3.30393429,16.949 2.87023435,16.889 2.64027252,16.588 C2.40930209,16.288 2.47082697,15.858 2.77139111,15.63 L15.2387514,6.305 C15.466696,6.134 15.752131,5.99 15.9720068,5.99 C16.1969256,5.994 16.5327909,6.134 16.7607356,6.305 L21.8673001,10.125 L21.8673001,9.493 C21.8673001,8.997 22.2455268,8.594 22.7094849,8.594 L24.6177646,8.594 C25.0817227,8.594 25.4589408,8.997 25.4589408,9.493 L25.4589408,12.811 L29.2270872,15.63 C29.5306771,15.858 29.5891762,16.288 29.3612316,16.588 C29.3612316,16.588 29.5891762,16.288 29.3612316,16.588 L29.3612316,16.588 L29.3612316,16.588 Z M23.7332185,28 L18.7365918,28 L18.7365918,21.157 C18.7365918,20.399 18.1163,19.783 17.3527864,19.783 L14.5972789,19.783 C13.8337653,19.783 13.2124649,20.399 13.2124649,21.157 L13.2124649,28 L8.26626844,28 C7.19815627,28 6.33277361,27.143 6.33277361,25.981 L6.33277361,17.15 L15.1106586,10.548 C15.1106586,10.548 15.6593394,10.094 15.9992392,10.094 C16.3280442,10.094 16.8847939,10.548 16.8847939,10.548 L25.6677219,17.15 L25.6677219,26.084 C25.6677219,27.143 24.8013306,28 23.7332185,28 L23.7332185,28 Z M23.7332185,28" id="home--title-grey" fill="#3A434E" sketch:type="MSShapeGroup"></path>
    </g>
</svg>

<svg width="32" height="232" viewBox="0 0 32 232" xmlns="http://www.w3.org/2000/svg" xmlns:sketch="http://www.bohemiancoding.com/sketch/ns"><title>home</title><g sketch:type="MSPage" fill="none"><path d="M29.361 176.588c-.231.301-.665.361-.969.135l-12.393-9.272-12.393 9.272c-.303.226-.736.166-.966-.135-.231-.3-.169-.73.131-.958l12.467-9.325c.228-.171.513-.315.733-.315.225.004.561.144.789.315l5.107 3.82v-.632c0-.496.378-.899.842-.899h1.908c.464 0 .841.403.841.899v3.318l3.768 2.819c.304.228.362.658.134.958zm-5.628 11.412h-4.997v-6.843c0-.758-.62-1.374-1.384-1.374h-2.756c-.764 0-1.385.616-1.385 1.374v6.843h-4.946c-1.068 0-1.933-.857-1.933-2.019v-8.831l8.778-6.602s.549-.454.889-.454c.329 0 .886.454.886.454l8.783 6.602v8.934c0 1.059-.866 1.916-1.935 1.916zm0 0" fill="#15C98D" sketch:type="MSShapeGroup"/><path d="M29.361 136.588c-.231.301-.665.361-.969.135l-12.393-9.272-12.393 9.272c-.303.226-.736.166-.966-.135-.231-.3-.169-.73.131-.958l12.467-9.325c.228-.171.513-.315.733-.315.225.004.561.144.789.315l5.107 3.82v-.632c0-.496.378-.899.842-.899h1.908c.464 0 .841.403.841.899v3.318l3.768 2.819c.304.228.362.658.134.958zm-5.628 11.412h-4.997v-6.843c0-.758-.62-1.374-1.384-1.374h-2.756c-.764 0-1.385.616-1.385 1.374v6.843h-4.946c-1.068 0-1.933-.857-1.933-2.019v-8.831l8.778-6.602s.549-.454.889-.454c.329 0 .886.454.886.454l8.783 6.602v8.934c0 1.059-.866 1.916-1.935 1.916zm0 0" fill="#206FAC" sketch:type="MSShapeGroup"/><path d="M29.361 96.588c-.231.301-.665.361-.969.135l-12.393-9.272-12.393 9.272c-.303.226-.736.166-.966-.135-.231-.3-.169-.73.131-.958l12.467-9.325c.228-.171.513-.315.733-.315.225.004.561.144.789.315l5.107 3.82v-.632c0-.496.378-.899.842-.899h1.908c.464 0 .841.403.841.899v3.318l3.768 2.819c.304.228.362.658.134.958zm-5.628 11.412h-4.997v-6.843c0-.758-.62-1.374-1.384-1.374h-2.756c-.764 0-1.385.616-1.385 1.374v6.843h-4.946c-1.068 0-1.933-.857-1.933-2.019v-8.831l8.778-6.602s.549-.454.889-.454c.329 0 .886.454.886.454l8.783 6.602v8.934c0 1.059-.866 1.916-1.935 1.916zm0 0" fill="#fff" sketch:type="MSShapeGroup"/><path d="M29.361 56.588c-.231.301-.665.361-.969.135l-12.393-9.272-12.393 9.272c-.303.226-.736.166-.966-.135-.231-.3-.169-.73.131-.958l12.467-9.325c.228-.171.513-.315.733-.315.225.004.561.144.789.315l5.107 3.82v-.632c0-.496.378-.899.842-.899h1.908c.464 0 .841.403.841.899v3.318l3.768 2.819c.304.228.362.658.134.958zm-5.628 11.412h-4.997v-6.843c0-.758-.62-1.374-1.384-1.374h-2.756c-.764 0-1.385.616-1.385 1.374v6.843h-4.946c-1.068 0-1.933-.857-1.933-2.019v-8.831l8.778-6.602s.549-.454.889-.454c.329 0 .886.454.886.454l8.783 6.602v8.934c0 1.059-.866 1.916-1.935 1.916zm0 0" fill="#67737B" sketch:type="MSShapeGroup"/><path d="M29.361 16.588c-.231.301-.665.361-.969.135l-12.393-9.272-12.393 9.272c-.303.226-.736.166-.966-.135-.231-.3-.169-.73.131-.958l12.467-9.325c.228-.171.513-.315.733-.315.225.004.561.144.789.315l5.107 3.82v-.632c0-.496.378-.899.842-.899h1.908c.464 0 .841.403.841.899v3.318l3.768 2.819c.304.228.362.658.134.958zm-5.628 11.412h-4.997v-6.843c0-.758-.62-1.374-1.384-1.374h-2.756c-.764 0-1.385.616-1.385 1.374v6.843h-4.946c-1.068 0-1.933-.857-1.933-2.019v-8.831l8.778-6.602s.549-.454.889-.454c.329 0 .886.454.886.454l8.783 6.602v8.934c0 1.059-.866 1.916-1.935 1.916zm0 0" fill="#3A434E" sketch:type="MSShapeGroup"/></g></svg>
